lib/brands/icons/contentful.svg

<svg xmlns="http://www.w3.org/2000/svg" fill="none" aria-hidden="true" viewBox="0 0 48 48"><g id="contentful-Icon"><g id="Group"><path id="Vector" fill="#FAE501" d="M18.9652 31.0875C17.0527 29.2875 15.9277 26.8125 15.9277 24C15.9277 21.1875 17.0527 18.7125 18.8527 16.9125C20.4277 15.3375 20.4277 12.8625 18.8527 11.2875C17.2777 9.71245 14.8027 9.71245 13.2277 11.2875C10.0777 14.55 8.05273 19.05 8.05273 24C8.05273 28.95 10.0777 33.45 13.3402 36.7125C14.9152 38.2875 17.3902 38.2875 18.9652 36.7125C20.4277 35.1375 20.4277 32.6625 18.9652 31.0875Z"/><path id="Vector_2" fill="#4FB5E1" d="M18.9654 16.9125C20.7654 15 23.2404 13.875 26.0529 13.875C28.8654 13.875 31.3404 15 33.1404 16.8C34.7154 18.375 37.1904 18.375 38.7654 16.8C40.3404 15.225 40.3404 12.75 38.7654 11.175C35.5029 8.025 31.0029 6 26.0529 6C21.1029 6 16.6029 8.025 13.3404 11.2875C11.7654 12.8625 11.7654 15.3375 13.3404 16.9125C14.9154 18.375 17.3904 18.375 18.9654 16.9125Z"/><path id="Vector_3" fill="#F05751" d="M33.1404 31.0875C31.3404 33 28.8654 34.125 26.0529 34.125C23.2404 34.125 20.7654 33 18.9654 31.2C17.3904 29.625 14.9154 29.625 13.3404 31.2C11.7654 32.775 11.7654 35.25 13.3404 36.825C16.6029 39.975 21.1029 42 26.0529 42C31.0029 42 35.5029 39.975 38.7654 36.7125C40.3404 35.1375 40.3404 32.6625 38.7654 31.0875C37.1904 29.625 34.7154 29.625 33.1404 31.0875Z"/><path id="Vector_4" fill="#0681B6" d="M16.1523 18.0375C18.327 18.0375 20.0898 16.2746 20.0898 14.1C20.0898 11.9254 18.327 10.1625 16.1523 10.1625C13.9777 10.1625 12.2148 11.9254 12.2148 14.1C12.2148 16.2746 13.9777 18.0375 16.1523 18.0375Z"/><path id="Vector_5" fill="#CD4739" d="M16.1523 37.8374C18.327 37.8374 20.0898 36.0745 20.0898 33.8999C20.0898 31.7253 18.327 29.9624 16.1523 29.9624C13.9777 29.9624 12.2148 31.7253 12.2148 33.8999C12.2148 36.0745 13.9777 37.8374 16.1523 37.8374Z"/></g></g></svg>

<svg xmlns="http://www.w3.org/2000/svg" fill="none" aria-hidden="true" viewBox="0 0 48 48"><path fill="#FAE501" d="M18.966 31.087c-1.913-1.8-3.038-4.274-3.038-7.087a9.938 9.938 0 0 1 2.925-7.087 3.939 3.939 0 0 0 0-5.626 3.939 3.939 0 0 0-5.625 0C10.078 14.55 8.053 19.05 8.053 24c0 4.95 2.025 9.45 5.288 12.712a3.939 3.939 0 0 0 5.625 0 4.154 4.154 0 0 0 0-5.625Z"/><path fill="#4FB5E1" d="M18.966 16.913c1.8-1.913 4.275-3.038 7.087-3.038a9.938 9.938 0 0 1 7.088 2.925 3.939 3.939 0 0 0 5.625 0 3.939 3.939 0 0 0 0-5.625C35.503 8.025 31.003 6 26.053 6c-4.95 0-9.45 2.025-12.712 5.287a3.939 3.939 0 0 0 0 5.626 4.154 4.154 0 0 0 5.625 0Z"/><path fill="#F05751" d="M33.14 31.087c-1.8 1.913-4.274 3.038-7.087 3.038a9.938 9.938 0 0 1-7.087-2.925 3.939 3.939 0 0 0-5.625 0 3.939 3.939 0 0 0 0 5.625C16.603 39.975 21.103 42 26.053 42s9.45-2.025 12.713-5.288a3.939 3.939 0 0 0 0-5.625 4.154 4.154 0 0 0-5.625 0Z"/><path fill="#0681B6" d="M16.153 18.038a3.938 3.938 0 1 0 0-7.876 3.938 3.938 0 0 0 0 7.876Z"/><path fill="#CD4739" d="M16.153 37.837a3.938 3.938 0 1 0 0-7.875 3.938 3.938 0 0 0 0 7.875Z"/></svg>
